X: 36538
T: Set The Clock
R: reel
M: 4/4
K: Dmajor
|:A2 AG EF G2|Addc d2 af|gefd ceAd|cdef gece|
dcAG EF G2|Addc d2 af|gefd ceAd|=cAGE FD D2:|
|:d2 af g2 fg|afge fdAB|=cdef gefg|afge fdec|
dAaf g2 fg|afge fdad|gefd =ceAd|cAGE FD D2:|

